dist/intermediate-svg/pdf.svg

<?xml version="1.0" encoding="utf-8"?><svg xmlns="http://www.w3.org/2000/svg" viewBox="0 0 30 27" width="24" height="21.6"><path d="M19 10V7l-6-7H2a2 2 0 00-2 2v23a2 2 0 002 2h15a2 2 0 002-2v-2h8a3 3 0 003-3v-7a3 3 0 00-3-3zm-1 13v2a1 1 0 01-1 1H2a1 1 0 01-1-1V2a1 1 0 011-1h10v5a2 2 0 002 2h4v2h-8a3 3 0 00-3 3v7a3 3 0 003 3zM13 1.5V6a1 1 0 001 1h3.7L13 1.5zM10 11a2 2 0 00-2 2v7a2 2 0 002 2h17a2 2 0 002-2v-7a2 2 0 00-2-2zm13 5v-2h4v-1h-5v7h1v-3h3v-1zm-13-1v5h1v-3h2a2 2 0 000-4h-3v2zm1-1v2h2a1 1 0 000-2zm5-1v7h3a2 2 0 002-2v-3a2 2 0 00-2-2zm1 1v5h2a1 1 0 001-1v-3a1 1 0 00-1-1z" class="fill" fill-rule="evenodd"/></svg>

<?xml version="1.0" encoding="utf-8"?><svg xmlns="http://www.w3.org/2000/svg" viewBox="0 0 30 27" width="24" height="21.6"><path d="M19,10V7h0L13,0H2A2,2,0,0,0,0,2V25a2,2,0,0,0,2,2H17a2,2,0,0,0,2-2V23h8a3,3,0,0,0,3-3V13a3,3,0,0,0-3-3ZM18,23v2a1,1,0,0,1-1,1H2a1,1,0,0,1-1-1V2A1,1,0,0,1,2,1H12V6a2,2,0,0,0,2,2h4v2H10a3,3,0,0,0-3,3v7a3,3,0,0,0,3,3ZM13,1.5V6a1,1,0,0,0,1,1h3.7L13,1.5ZM10,11a2,2,0,0,0-2,2v7a2,2,0,0,0,2,2H27a2,2,0,0,0,2-2V13a2,2,0,0,0-2-2Zm13,5V14h4V13H22v7h1V17h3V16ZM10,15v5h1V17h2a2,2,0,0,0,0-4H10v2Zm1-1v2h2a1,1,0,0,0,0-2Zm5-1v7h3a2,2,0,0,0,2-2V15a2,2,0,0,0-2-2Zm1,1v5h2a1,1,0,0,0,1-1V15a1,1,0,0,0-1-1Z" fill="var(--svg-icon-fill, #000)" fill-rule="evenodd"/></svg>
